;FLAVOR:Marlin
;TIME:7301
;Filament used: 7.97784m
;Layer height: 0.23
;Generated with Cura_SteamEngine 3.6.0
M140 S60
M105
M190 S60
M104 S220
M105
M109 S220
M82 ;absolute extrusion mode
G21 ;metric values
 G90 ;absolute positioning
 M82 ;set extruder to absolute mode
 M107 ;start with the fan off
 G28 X0 Y0 ;move X/Y to min endstops
 G28 Z0 ;move Z to min endstops
 G1 Z15.0 F{travel_speed} ;move the platform down 15mm
 G92 E0 ;zero the extruded length
 G1 F200 E6 ;extrude 6 mm of feed stock
 G92 E0 ;zero the extruded length again
 G1 F{travel_speed} 
 ;Put printing message on LCD screen
 M117 Printing...
G92 E0
;LAYER_COUNT:93
;LAYER:0
M106 S102
G0 F1200 X53.071 Y54.043 Z0.3
;TYPE:SKIRT
G1 X53.392 Y53.765 E0.02225
G1 X54.249 Y53.123 E0.07834
G1 X54.613 Y52.889 E0.10101
G1 X55.555 Y52.376 E0.1572
G1 X55.94 Y52.201 E0.17935
G1 X56.938 Y51.828 E0.23516
G1 X57.348 Y51.707 E0.25756
G1 X58.397 Y51.478 E0.3138
G1 X58.824 Y51.417 E0.3364
G1 X59.89 Y51.341 E0.39238
G1 X60.103 Y51.333 E0.40355
G1 X139.897 Y51.333 E4.58353
G1 X140.11 Y51.341 E4.5947
G1 X141.176 Y51.417 E4.65068
G1 X141.603 Y51.478 E4.67328
G1 X142.652 Y51.707 E4.72952
G1 X143.062 Y51.828 E4.75192
G1 X144.06 Y52.201 E4.80773
G1 X144.445 Y52.376 E4.82988
G1 X145.387 Y52.889 E4.88607
G1 X145.751 Y53.123 E4.90874
G1 X146.608 Y53.765 E4.96483
G1 X146.929 Y54.043 E4.98708
G1 X147.684 Y54.797 E5.04297
G1 X147.966 Y55.123 E5.06555
G1 X148.607 Y55.98 E5.12162
G1 X148.838 Y56.34 E5.14402
G1 X149.352 Y57.282 E5.20024
G1 X149.529 Y57.67 E5.22258
G1 X149.902 Y58.669 E5.27844
G1 X150.024 Y59.081 E5.30095
G1 X150.252 Y60.13 E5.35718
G1 X150.312 Y60.551 E5.37946
G1 X150.389 Y61.616 E5.43539
G1 X150.397 Y61.832 E5.44672
G1 X150.397 Y138.167 E9.4455
G1 X150.389 Y138.383 E9.45683
G1 X150.312 Y139.449 E9.51282
G1 X150.252 Y139.869 E9.53504
G1 X150.025 Y140.915 E9.59111
G1 X149.904 Y141.328 E9.61365
G1 X149.53 Y142.33 E9.66968
G1 X149.352 Y142.718 E9.69204
G1 X148.838 Y143.66 E9.74826
G1 X148.607 Y144.02 E9.77066
G1 X147.966 Y144.877 E9.82673
G1 X147.684 Y145.203 E9.84931
G1 X146.929 Y145.957 E9.9052
G1 X146.608 Y146.235 E9.92745
G1 X145.751 Y146.877 E9.98354
G1 X145.386 Y147.111 E10.00625
G1 X144.443 Y147.624 E10.06249
G1 X144.06 Y147.799 E10.08455
G1 X143.063 Y148.172 E10.14031
G1 X142.652 Y148.293 E10.16275
G1 X141.603 Y148.522 E10.219
G1 X141.176 Y148.583 E10.2416
G1 X140.11 Y148.659 E10.29758
G1 X139.897 Y148.667 E10.30874
G1 X60.103 Y148.667 E14.48873
G1 X59.89 Y148.659 E14.4999
G1 X58.824 Y148.583 E14.55588
G1 X58.397 Y148.522 E14.57848
G1 X57.348 Y148.293 E14.63472
G1 X56.937 Y148.172 E14.65717
G1 X55.94 Y147.799 E14.71293
G1 X55.557 Y147.624 E14.73499
G1 X54.614 Y147.111 E14.79122
G1 X54.249 Y146.877 E14.81393
G1 X53.392 Y146.235 E14.87003
G1 X53.071 Y145.957 E14.89227
G1 X52.316 Y145.203 E14.94817
G1 X52.034 Y144.877 E14.97075
G1 X51.393 Y144.02 E15.02681
G1 X51.162 Y143.66 E15.04922
G1 X50.648 Y142.718 E15.10543
G1 X50.47 Y142.33 E15.12779
G1 X50.096 Y141.328 E15.18382
G1 X49.975 Y140.915 E15.20637
G1 X49.748 Y139.869 E15.26244
G1 X49.688 Y139.449 E15.28466
G1 X49.611 Y138.384 E15.3406
G1 X49.603 Y138.168 E15.35192
G1 X49.603 Y61.833 E19.35071
G1 X49.611 Y61.617 E19.36203
G1 X49.688 Y60.551 E19.41802
G1 X49.748 Y60.131 E19.44024
G1 X49.975 Y59.085 E19.49631
G1 X50.096 Y58.672 E19.51886
G1 X50.47 Y57.67 E19.57488
G1 X50.648 Y57.282 E19.59724
G1 X51.162 Y56.34 E19.65346
G1 X51.393 Y55.98 E19.67587
G1 X52.034 Y55.123 E19.73193
G1 X52.316 Y54.797 E19.75451
G1 X53.071 Y54.043 E19.8104
G0 X53.354 Y54.326
G1 X53.632 Y54.085 E19.82968
G1 X54.489 Y53.443 E19.88577
G1 X54.805 Y53.241 E19.90542
G1 X55.747 Y52.728 E19.96161
G1 X56.08 Y52.576 E19.98078
G1 X57.078 Y52.203 E20.03659
G1 X57.433 Y52.098 E20.05599
G1 X58.482 Y51.869 E20.11223
G1 X58.852 Y51.816 E20.13181
G1 X59.918 Y51.74 E20.1878
G1 X60.103 Y51.733 E20.19749
G1 X139.897 Y51.733 E24.37748
G1 X140.082 Y51.74 E24.38718
G1 X141.148 Y51.816 E24.44316
G1 X141.518 Y51.869 E24.46274
G1 X142.567 Y52.098 E24.51899
G1 X142.922 Y52.203 E24.53838
G1 X143.92 Y52.576 E24.59419
G1 X144.253 Y52.728 E24.61337
G1 X145.195 Y53.241 E24.66956
G1 X145.511 Y53.443 E24.68921
G1 X146.368 Y54.085 E24.7453
G1 X146.646 Y54.326 E24.76457
G1 X147.401 Y55.08 E24.82047
G1 X147.646 Y55.363 E24.84008
G1 X148.287 Y56.22 E24.89614
G1 X148.487 Y56.532 E24.91555
G1 X149.001 Y57.474 E24.97177
G1 X149.155 Y57.81 E24.99113
G1 X149.528 Y58.809 E25.04699
G1 X149.633 Y59.166 E25.06648
G1 X149.861 Y60.215 E25.12272
G1 X149.913 Y60.58 E25.14203
G1 X149.99 Y61.645 E25.19797
G1 X149.997 Y61.832 E25.20777
G1 X149.997 Y138.167 E29.20656
G1 X149.99 Y138.354 E29.21636
G1 X149.913 Y139.42 E29.27235
G1 X149.861 Y139.784 E29.29161
G1 X149.634 Y140.83 E29.34768
G1 X149.529 Y141.188 E29.36722
G1 X149.155 Y142.19 E29.42325
G1 X149.001 Y142.526 E29.44261
G1 X148.487 Y143.468 E29.49883
G1 X148.287 Y143.78 E29.51824
G1 X147.646 Y144.637 E29.5743
G1 X147.401 Y144.92 E29.59391
G1 X146.646 Y145.674 E29.64981
G1 X146.368 Y145.915 E29.66908
G1 X145.511 Y146.557 E29.72517
G1 X145.194 Y146.76 E29.74489
G1 X144.251 Y147.273 E29.80113
G1 X143.92 Y147.424 E29.82019
G1 X142.923 Y147.797 E29.87595
G1 X142.567 Y147.902 E29.89539
G1 X141.518 Y148.131 E29.95164
G1 X141.148 Y148.184 E29.97122
G1 X140.082 Y148.26 E30.0272
G1 X139.897 Y148.267 E30.0369
G1 X60.103 Y148.267 E34.21688
G1 X59.918 Y148.26 E34.22658
G1 X58.852 Y148.184 E34.28257
G1 X58.482 Y148.131 E34.30215
G1 X57.433 Y147.902 E34.35839
G1 X57.077 Y147.797 E34.37784
G1 X56.08 Y147.424 E34.4336
G1 X55.749 Y147.273 E34.45266
G1 X54.806 Y146.76 E34.50889
G1 X54.489 Y146.557 E34.52861
G1 X53.632 Y145.915 E34.58471
G1 X53.354 Y145.674 E34.60398
G1 X52.599 Y144.92 E34.65987
G1 X52.354 Y144.637 E34.67948
G1 X51.713 Y143.78 E34.73555
G1 X51.513 Y143.468 E34.75496
G1 X50.999 Y142.526 E34.81117
G1 X50.845 Y142.19 E34.83054
G1 X50.471 Y141.188 E34.88656
G1 X50.366 Y140.83 E34.90611
G1 X50.139 Y139.784 E34.96218
G1 X50.087 Y139.42 E34.98144
G1 X50.01 Y138.355 E35.03737
G1 X50.003 Y138.168 E35.04718
G1 X50.003 Y61.833 E39.04596
G1 X50.01 Y61.646 E39.05577
G1 X50.087 Y60.58 E39.11175
G1 X50.139 Y60.216 E39.13101
G1 X50.366 Y59.17 E39.18708
G1 X50.471 Y58.812 E39.20663
G1 X50.845 Y57.81 E39.26265
G1 X50.999 Y57.474 E39.28202
G1 X51.513 Y56.532 E39.33823
G1 X51.713 Y56.22 E39.35764
G1 X52.354 Y55.363 E39.41371
G1 X52.599 Y55.08 E39.43332
G1 X53.354 Y54.326 E39.48921
G0 X53.636 Y54.609
G1 X53.872 Y54.405 E39.50555
G1 X54.729 Y53.763 E39.56165
G1 X54.996 Y53.592 E39.57826
G1 X55.938 Y53.079 E39.63444
G1 X56.22 Y52.95 E39.65069
G1 X57.218 Y52.577 E39.7065
G1 X57.519 Y52.489 E39.72293
G1 X58.568 Y52.26 E39.77918
G1 X58.881 Y52.215 E39.79574
G1 X59.947 Y52.139 E39.85172
G1 X60.103 Y52.133 E39.8599
G1 X139.897 Y52.133 E44.03989
G1 X140.053 Y52.139 E44.04807
G1 X141.119 Y52.215 E44.10405
G1 X141.432 Y52.26 E44.12061
G1 X142.481 Y52.489 E44.17686
G1 X142.782 Y52.577 E44.19329
G1 X143.78 Y52.95 E44.2491
G1 X144.062 Y53.079 E44.26535
G1 X145.004 Y53.592 E44.32153
G1 X145.271 Y53.763 E44.33814
G1 X146.128 Y54.405 E44.39424
G1 X146.364 Y54.609 E44.41058
G1 X147.119 Y55.363 E44.46647
G1 X147.326 Y55.602 E44.48304
G1 X147.967 Y56.459 E44.5391
G1 X148.136 Y56.723 E44.55552
G1 X148.65 Y57.665 E44.61173
G1 X148.78 Y57.949 E44.6281
G1 X149.153 Y58.948 E44.68396
G1 X149.242 Y59.251 E44.7005
G1 X149.47 Y60.3 E44.75674
G1 X149.514 Y60.608 E44.77303
G1 X149.591 Y61.673 E44.82897
G1 X149.597 Y61.832 E44.8373
G1 X149.597 Y138.167 E48.83609
G1 X149.591 Y138.325 E48.84437
G1 X149.514 Y139.391 E48.90036
G1 X149.47 Y139.7 E48.91671
G1 X149.243 Y140.746 E48.97278
G1 X149.154 Y141.048 E48.98927
G1 X148.78 Y142.05 E49.0453
G1 X148.65 Y142.335 E49.06171
G1 X148.136 Y143.277 E49.11792
G1 X147.967 Y143.541 E49.13435
G1 X147.326 Y144.398 E49.19041
G1 X147.119 Y144.637 E49.20697
G1 X146.364 Y145.391 E49.26287
G1 X146.128 Y145.595 E49.27921
G1 X145.271 Y146.237 E49.3353
G1 X145.003 Y146.409 E49.35198
G1 X144.06 Y146.922 E49.40822
G1 X143.78 Y147.05 E49.42435
G1 X142.783 Y147.423 E49.48011
G1 X142.481 Y147.511 E49.49659
G1 X141.432 Y147.74 E49.55283
G1 X141.119 Y147.785 E49.5694
G1 X140.053 Y147.861 E49.62538
G1 X139.897 Y147.867 E49.63356
G1 X60.103 Y147.867 E53.81355
G1 X59.947 Y147.861 E53.82172
G1 X58.881 Y147.785 E53.87771
G1 X58.568 Y147.74 E53.89427
G1 X57.519 Y147.511 E53.95052
G1 X57.217 Y147.423 E53.967
G1 X56.22 Y147.05 E54.02276
G1 X55.94 Y146.922 E54.03889
G1 X54.997 Y146.409 E54.09512
G1 X54.729 Y146.237 E54.1118
G1 X53.872 Y145.595 E54.1679
G1 X53.636 Y145.391 E54.18424
G1 X52.881 Y144.637 E54.24013
G1 X52.674 Y144.398 E54.2567
G1 X52.033 Y143.541 E54.31276
G1 X51.864 Y143.277 E54.32918
G1 X51.35 Y142.335 E54.38539
G1 X51.22 Y142.05 E54.4018
G1 X50.846 Y141.048 E54.45783
G1 X50.757 Y140.746 E54.47432
G1 X50.53 Y139.7 E54.53039
G1 X50.486 Y139.392 E54.54669
G1 X50.409 Y138.327 E54.60263
G1 X50.403 Y138.168 E54.61096
G1 X50.403 Y61.833 E58.60975
G1 X50.409 Y61.675 E58.61803
G1 X50.486 Y60.609 E58.67402
G1 X50.53 Y60.3 E58.69037
G1 X50.757 Y59.254 E58.74644
G1 X50.846 Y58.952 E58.76293
G1 X51.22 Y57.95 E58.81896
G1 X51.35 Y57.665 E58.83537
G1 X51.864 Y56.723 E58.89158
G1 X52.033 Y56.459 E58.908
G1 X52.674 Y55.602 E58.96407
G1 X52.881 Y55.363 E58.98063
G1 X53.636 Y54.609 E59.03652
G0 X53.919 Y54.892
G1 X54.112 Y54.725 E59.04989
G1 X54.969 Y54.083 E59.10599
G1 X55.187 Y53.943 E59.11956
G1 X56.129 Y53.43 E59.17575
G1 X56.36 Y53.325 E59.18904
G1 X57.358 Y52.952 E59.24485
G1 X57.604 Y52.879 E59.2583
G1 X58.653 Y52.65 E59.31454
G1 X58.909 Y52.614 E59.32808
G1 X59.975 Y52.538 E59.38407
G1 X60.103 Y52.533 E59.39078
G1 X139.897 Y52.533 E63.57076
G1 X140.025 Y52.538 E63.57747
G1 X141.091 Y52.614 E63.63346
G1 X141.347 Y52.65 E63.647
G1 X142.396 Y52.879 E63.70325
G1 X142.642 Y52.952 E63.71669
G1 X143.64 Y53.325 E63.7725
G1 X143.871 Y53.43 E63.78579
G1 X144.813 Y53.943 E63.84198
G1 X145.031 Y54.083 E63.85555
G1 X145.888 Y54.725 E63.91165
G1 X146.081 Y54.892 E63.92502
G1 X146.836 Y55.646 E63.98091
G1 X147.005 Y55.842 E63.99447
G1 X147.646 Y56.699 E64.05053
G1 X147.785 Y56.915 E64.06399
G1 X148.299 Y57.857 E64.1202
G1 X148.405 Y58.089 E64.13356
G1 X148.778 Y59.088 E64.18943
G1 X148.851 Y59.336 E64.20297
G1 X149.079 Y60.385 E64.2592
G1 X149.115 Y60.637 E64.27254
G1 X149.192 Y61.702 E64.32847
G1 X149.197 Y61.832 E64.33529
G1 X149.197 Y138.167 E68.33407
G1 X149.192 Y138.297 E68.34089
G1 X149.115 Y139.363 E68.39688
G1 X149.079 Y139.615 E68.41021
G1 X148.852 Y140.661 E68.46628
G1 X148.779 Y140.908 E68.47977
G1 X148.405 Y141.91 E68.5358
G1 X148.299 Y142.143 E68.54921
G1 X147.785 Y143.085 E68.60542
G1 X147.646 Y143.301 E68.61888
G1 X147.005 Y144.158 E68.67494
G1 X146.836 Y144.354 E68.6885
G1 X146.081 Y145.108 E68.7444
G1 X145.888 Y145.275 E68.75777
G1 X145.031 Y145.917 E68.81386
G1 X144.812 Y146.057 E68.82747
G1 X143.869 Y146.57 E68.88371
G1 X143.64 Y146.675 E68.89691
G1 X142.643 Y147.048 E68.95267
G1 X142.396 Y147.121 E68.96616
G1 X141.347 Y147.35 E69.02241
G1 X141.091 Y147.386 E69.03595
G1 X140.025 Y147.462 E69.09193
G1 X139.897 Y147.467 E69.09864
G1 X60.103 Y147.467 E73.27863
G1 X59.975 Y147.462 E73.28534
G1 X58.909 Y147.386 E73.34132
G1 X58.653 Y147.35 E73.35487
G1 X57.604 Y147.121 E73.41111
G1 X57.357 Y147.048 E73.42461
G1 X56.36 Y146.675 E73.48037
G1 X56.131 Y146.57 E73.49357
G1 X55.188 Y146.057 E73.5498
G1 X54.969 Y145.917 E73.56342
G1 X54.112 Y145.275 E73.61951
G1 X53.919 Y145.108 E73.63288
G1 X53.164 Y144.354 E73.68878
G1 X52.995 Y144.158 E73.70233
G1 X52.354 Y143.301 E73.75839
G1 X52.215 Y143.085 E73.77185
G1 X51.701 Y142.143 E73.82806
G1 X51.595 Y141.91 E73.84147
G1 X51.221 Y140.908 E73.8975
G1 X51.148 Y140.661 E73.91099
G1 X50.921 Y139.615 E73.96706
G1 X50.885 Y139.363 E73.9804
G1 X50.808 Y138.298 E74.03633
G1 X50.803 Y138.168 E74.04315
G1 X50.803 Y61.833 E78.04194
G1 X50.808 Y61.703 E78.04875
G1 X50.885 Y60.637 E78.10474
G1 X50.921 Y60.385 E78.11807
G1 X51.148 Y59.339 E78.17414
G1 X51.221 Y59.092 E78.18764
G1 X51.595 Y58.09 E78.24366
G1 X51.701 Y57.857 E78.25707
G1 X52.215 Y56.915 E78.31329
G1 X52.354 Y56.699 E78.32674
G1 X52.995 Y55.842 E78.3828
G1 X53.164 Y55.646 E78.39636
G1 X53.919 Y54.892 E78.45226
G0 X54.202 Y55.175
G1 X54.352 Y55.046 E78.46262
G1 X55.209 Y54.404 E78.51871
G1 X55.378 Y54.294 E78.52928
G1 X56.32 Y53.781 E78.58547
G1 X56.5 Y53.7 E78.59581
G1 X57.498 Y53.327 E78.65162
G1 X57.689 Y53.27 E78.66206
G1 X58.738 Y53.041 E78.71831
G1 X58.937 Y53.013 E78.72883
G1 X60.003 Y52.937 E78.78482
G1 X60.103 Y52.933 E78.79006
G1 X139.897 Y52.933 E82.97004
G1 X139.997 Y52.937 E82.97529
G1 X141.063 Y53.013 E83.03127
G1 X141.262 Y53.041 E83.0418
G1 X142.311 Y53.27 E83.09804
G1 X142.502 Y53.327 E83.10849
G1 X143.5 Y53.7 E83.1643
G1 X143.68 Y53.781 E83.17464
G1 X144.622 Y54.294 E83.23083
G1 X144.791 Y54.404 E83.24139
G1 X145.648 Y55.046 E83.29748
G1 X145.798 Y55.175 E83.30785
G1 X146.553 Y55.929 E83.36374
G1 X146.685 Y56.081 E83.37429
G1 X147.326 Y56.938 E83.43035
G1 X147.434 Y57.106 E83.44081
G1 X147.948 Y58.048 E83.49703
G1 X148.031 Y58.229 E83.50746
G1 X148.404 Y59.228 E83.56332
G1 X148.46 Y59.421 E83.57385
G1 X148.688 Y60.47 E83.63008
G1 X148.716 Y60.666 E83.64045
G1 X148.793 Y61.731 E83.69639
G1 X148.797 Y61.832 E83.70168
G1 X148.797 Y138.167 E87.70047
G1 X148.793 Y138.268 E87.70577
G1 X148.716 Y139.334 E87.76175
G1 X148.688 Y139.53 E87.77213
G1 X148.461 Y140.576 E87.8282
G1 X148.405 Y140.769 E87.83872
G1 X148.031 Y141.771 E87.89475
G1 X147.948 Y141.952 E87.90518
G1 X147.434 Y142.894 E87.96139
G1 X147.326 Y143.062 E87.97186
G1 X146.685 Y143.919 E88.02792
G1 X146.553 Y144.071 E88.03847
G1 X145.798 Y144.825 E88.09436
G1 X145.648 Y144.954 E88.10472
G1 X144.791 Y145.596 E88.16082
G1 X144.621 Y145.706 E88.17143
G1 X143.678 Y146.219 E88.22766
G1 X143.5 Y146.3 E88.23791
G1 X142.503 Y146.673 E88.29367
G1 X142.311 Y146.73 E88.30416
G1 X141.262 Y146.959 E88.36041
G1 X141.063 Y146.987 E88.37093
G1 X139.997 Y147.063 E88.42692
G1 X139.897 Y147.067 E88.43216
G1 X60.103 Y147.067 E92.61215
G1 X60.003 Y147.063 E92.61739
G1 X58.937 Y146.987 E92.67337
G1 X58.738 Y146.959 E92.6839
G1 X57.689 Y146.73 E92.74014
G1 X57.497 Y146.673 E92.75064
G1 X56.5 Y146.3 E92.8064
G1 X56.322 Y146.219 E92.81664
G1 X55.379 Y145.706 E92.87288
G1 X55.209 Y145.596 E92.88349
G1 X54.352 Y144.954 E92.93958
G1 X54.202 Y144.825 E92.94994
G1 X53.447 Y144.071 E93.00584
G1 X53.315 Y143.919 E93.01639
G1 X52.674 Y143.062 E93.07245
G1 X52.566 Y142.894 E93.08291
G1 X52.052 Y141.952 E93.13912
G1 X51.969 Y141.771 E93.14956
G1 X51.595 Y140.769 E93.20558
G1 X51.539 Y140.576 E93.21611
G1 X51.312 Y139.53 E93.27218
G1 X51.284 Y139.334 E93.28255
G1 X51.207 Y138.269 E93.33849
G1 X51.203 Y138.168 E93.34378
G1 X51.203 Y61.833 E97.34257
G1 X51.207 Y61.732 E97.34786
G1 X51.284 Y60.666 E97.40385
G1 X51.312 Y60.47 E97.41422
G1 X51.539 Y59.424 E97.47029
G1 X51.595 Y59.231 E97.48082
G1 X51.969 Y58.229 E97.53685
G1 X52.052 Y58.048 E97.54728
G1 X52.566 Y57.106 E97.60349
G1 X52.674 Y56.938 E97.61395
G1 X53.315 Y56.081 E97.67002
G1 X53.447 Y55.929 E97.68056
G1 X54.202 Y55.175 E97.73646
G0 X54.484 Y55.458
G1 X54.591 Y55.366 E97.74385
G1 X55.448 Y54.724 E97.79994
G1 X55.57 Y54.646 E97.80753
G1 X56.512 Y54.133 E97.86372
G1 X56.64 Y54.074 E97.8711
G1 X57.638 Y53.701 E97.92691
G1 X57.775 Y53.661 E97.93439
G1 X58.824 Y53.432 E97.99064
G1 X58.966 Y53.412 E97.99815
G1 X60.032 Y53.336 E98.05413
G1 X60.103 Y53.333 E98.05785
G1 X139.897 Y53.333 E102.23784
G1 X139.968 Y53.336 E102.24156
G1 X141.034 Y53.412 E102.29755
G1 X141.176 Y53.432 E102.30506
G1 X142.225 Y53.661 E102.3613
G1 X142.362 Y53.701 E102.36878
G1 X143.36 Y54.074 E102.42459
G1 X143.488 Y54.133 E102.43198
G1 X144.43 Y54.646 E102.48817
G1 X144.552 Y54.724 E102.49575
G1 X145.409 Y55.366 E102.55184
G1 X145.516 Y55.458 E102.55924
G1 X146.271 Y56.212 E102.61513
G1 X146.365 Y56.321 E102.62267
G1 X147.006 Y57.178 E102.67873
G1 X147.083 Y57.298 E102.6862
G1 X147.597 Y58.24 E102.74242
G1 X147.656 Y58.369 E102.74985
G1 X148.029 Y59.368 E102.80571
G1 X148.069 Y59.506 E102.81324
G1 X148.297 Y60.555 E102.86947
G1 X148.317 Y60.695 E102.87688
G1 X148.394 Y61.76 E102.93281
